status/symbolic/touchpad-disabled-symbolic.svg

<?xml version="1.0" encoding="UTF-8" standalone="no"?>
<svg
   height="16"
   width="16"
   version="1.1"
   id="svg792"
   sodipodi:docname="touchpad-disabled-symbolic.svg"
   inkscape:version="1.2.2 (b0a8486541, 2022-12-01)"
   xmlns:inkscape="http://www.inkscape.org/namespaces/inkscape"
   xmlns:sodipodi="http://sodipodi.sourceforge.net/DTD/sodipodi-0.dtd"
   xmlns="http://www.w3.org/2000/svg"
   xmlns:svg="http://www.w3.org/2000/svg">
  <sodipodi:namedview
     id="namedview17277"
     pagecolor="#ffffff"
     bordercolor="#000000"
     borderopacity="0.25"
     inkscape:showpageshadow="2"
     inkscape:pageopacity="0.0"
     inkscape:pagecheckerboard="0"
     inkscape:deskcolor="#d1d1d1"
     showgrid="false"
     inkscape:zoom="54.75"
     inkscape:cx="9.2237443"
     inkscape:cy="9.4246575"
     inkscape:window-width="1390"
     inkscape:window-height="1053"
     inkscape:window-x="1216"
     inkscape:window-y="595"
     inkscape:window-maximized="0"
     inkscape:current-layer="svg792" />
  <defs
     id="defs796" />
  <path
     id="rect1851"
     style="font-variation-settings:normal;opacity:0.5;fill:#555761;fill-opacity:1;stroke:none;stroke-width:4;stroke-linecap:round;stroke-linejoin:round;stroke-miterlimit:4;stroke-dasharray:none;stroke-dashoffset:0;stroke-opacity:1;stop-color:#000000;stop-opacity:1"
     d="M 3,2 C 2.5233048,2 2.0792281,2.1650228 1.7363281,2.4414063 L 2.4511719,3.15625 C 2.6085824,3.0530286 2.7969113,2.9920288 3,2.9921875 L 13,3 c 0.553997,4.328e-4 1,0.4460018 1,1 v 6 H 9.2851562 l 0.9999998,1 H 14 v 1 c 0,0.553997 -0.446003,1 -1,1 h -0.714844 l 0.986328,0.986328 c 0.974514,-0.135368 1.72851,-0.965571 1.72851,-1.978516 L 15.000006,4 C 15.000006,2.8920033 14.107994,2 13,2 Z M 1,3.5 v 8.507812 c 0,1.107997 0.8920033,2 2,2 h 8.527344 L 10.519531,13 H 8 v -2 h 0.5195312 l -1,-1 H 2 V 4.4785156 Z M 2,11 h 5 v 2 H 3 C 2.4460018,13 2,12.553997 2,12 Z"
     sodipodi:nodetypes="sccsssccccssccccssccsccccccccccccssc" />
  <rect
     style="font-variation-settings:normal;fill:#555761;fill-opacity:1;stroke:none;stroke-width:1;stroke-linecap:square;stroke-linejoin:miter;stroke-miterlimit:4;stroke-dasharray:none;stroke-dashoffset:0;stroke-opacity:1;marker:none;stop-color:#000000"
     id="rect2480-1-6"
     width="1.248"
     height="19.799999"
     x="-0.6257652"
     y="1.416185"
     rx="0.5"
     ry="0.5"
     transform="rotate(-45)" />
</svg>

<svg
        xmlns='http://www.w3.org/2000/svg'
        xmlns:svg='http://www.w3.org/2000/svg'
        id='svg792'
        width='16'
        height='16'>
  <path
          id='rect1851'
          opacity='0.5'
          fill='url(#gpa:foreground) #555761'
          fill-opacity='1'
          fill-rule='nonzero'
          stroke='none'
          stroke-opacity='1'
          stroke-width='4'
          stroke-linecap='round'
          stroke-linejoin='round'
          stroke-miterlimit='4'
          stroke-dasharray='none'
          stroke-dashoffset='0'
          d='M 3 2 C 2.5233 2, 2.07923 2.16502, 1.73633 2.44141 L 2.45117 3.15625 C 2.60858 3.05303, 2.79691 2.99203, 3 2.99219 L 13 3 C 13.554 3.00043, 14 3.446, 14 4 L 14 10 L 9.28516 10 L 10.2852 11 L 14 11 L 14 12 C 14 12.554, 13.554 13, 13 13 L 12.2852 13 L 13.2715 13.9863 C 14.246 13.851, 15 13.0208, 15 12.0078 L 15 4 C 15 2.892, 14.108 2, 13 2 Z M 1 3.5 L 1 12.0078 C 1 13.1158, 1.892 14.0078, 3 14.0078 L 11.5273 14.0078 L 10.5195 13 L 8 13 L 8 11 L 8.51953 11 L 7.51953 10 L 2 10 L 2 4.47852 Z M 2 11 L 7 11 L 7 13 L 3 13 C 2.446 13, 2 12.554, 2 12 Z'
          class="foreground">
  </path>
  <rect
          id='rect2480-1-6'
          transform='rotate(-45, 0, 0)'
          fill='url(#gpa:foreground) #555761'
          fill-opacity='1'
          fill-rule='nonzero'
          stroke='none'
          stroke-opacity='1'
          stroke-width='1'
          stroke-linecap='square'
          stroke-linejoin='miter'
          stroke-miterlimit='4'
          stroke-dasharray='none'
          stroke-dashoffset='0'
          marker-start='none'
          marker-mid='none'
          marker-end='none'
          x='-0.625765'
          y='1.41619'
          width='1.248'
          height='19.8'
          rx='0.5'
          ry='0.5'
          class="foreground">
  </rect>
</svg>
